X: 37
T: Rotting Apples and Flies
C: Armand Aromin
H: 4/6/05
M: 6/8
L: 1/8
R: Jig
K: Edor
E3 FED | E3 EFA | BcB cBA | BAF AFD |
E3 FED | E3 EFA | Bce fec |1 BAF E2 D :|2 BAF E2 B ||
e3 eBe | g3 ged | f3 fed | e3 edB |
e3 eBe | g3 ged | faf edB |1 e3 e2 B :|2 e3 e2 D |]
